actual/images/trophy.svg

<?xml version="1.0" encoding="UTF-8" standalone="no"?>
<!-- Generator: Adobe Illustrator 16.0.0, SVG Export Plug-In . SVG Version: 6.00 Build 0)  -->
<!DOCTYPE svg  PUBLIC '-//W3C//DTD SVG 1.1//EN'  'http://www.w3.org/Graphics/SVG/1.1/DTD/svg11.dtd'>
<svg id="Layer_1" xmlns="http://www.w3.org/2000/svg" xml:space="preserve" height="49.091px" viewBox="0 0 55.149 49.091" width="55.149px" version="1.1" y="0px" x="0px" xmlns:xlink="http://www.w3.org/1999/xlink" enable-background="new 0 0 55.149 49.091">
		<path d="m14.457 27.214c0.016 0 0.037-0.002 0.059-0.006v-0.051c-0.104 0.043-0.098 0.057-0.059 0.057zm10.506 13.002h-2.612c-2.884 0-5.224 2.339-5.224 5.224h20.895c0-2.885-2.338-5.224-5.224-5.224h-2.611v-5.224h-5.223v5.224zm15.729-13.002c0.04 0 0.044-0.014-0.059-0.057v0.051c0.022 0.004 0.044 0.006 0.059 0.006zm7.777-18.34h-7.835v-2.612c0-1.442-1.169-2.612-2.612-2.612h-20.895c-1.441 0-2.611 1.169-2.611 2.612v2.612h-7.836c-1.441 0-2.611 1.169-2.611 2.612v5.224c0 4.198 2.783 10.448 10.447 10.448h1.094c2.016 4.609 6.611 7.835 11.965 7.835s9.95-3.226 11.965-7.835h1.095c7.665 0 10.447-6.25 10.447-10.448v-5.224c-0.001-1.443-1.17-2.612-2.613-2.612zm-33.953 13.059c-4.77 0-5.203-4.012-5.224-5.224v-2.612h5.224v7.836zm31.341-5.224c0 0.872-0.253 5.224-5.224 5.224v-7.835h5.224v2.611z" fill="#fff"/>
</svg>

<?xml version="1.0" encoding="utf-8"?>
<!-- Generator: Adobe Illustrator 16.0.0, SVG Export Plug-In . SVG Version: 6.00 Build 0)  -->
<!DOCTYPE svg PUBLIC "-//W3C//DTD SVG 1.1//EN" "http://www.w3.org/Graphics/SVG/1.1/DTD/svg11.dtd">
<svg version="1.1" id="Layer_1" xmlns="http://www.w3.org/2000/svg" xmlns:xlink="http://www.w3.org/1999/xlink" x="0px" y="0px"
	 width="55.149px" height="49.091px" viewBox="0 0 55.149 49.091" enable-background="new 0 0 55.149 49.091" xml:space="preserve">
<g>
	<g>
		<path fill="#FFFFFF" d="M14.457,27.214c0.016,0,0.037-0.002,0.059-0.006v-0.051C14.412,27.2,14.418,27.214,14.457,27.214z
			 M24.963,40.216h-2.612c-2.884,0-5.224,2.339-5.224,5.224h20.895c0-2.885-2.338-5.224-5.224-5.224h-2.611v-5.224h-2.612h-2.611
			V40.216z M40.692,27.214c0.04,0,0.044-0.014-0.059-0.057v0.051C40.655,27.212,40.677,27.214,40.692,27.214z M48.469,8.874h-7.835
			V6.262c0-1.442-1.169-2.612-2.612-2.612H17.127c-1.441,0-2.611,1.169-2.611,2.612v2.612H6.68c-1.441,0-2.611,1.169-2.611,2.612
			v5.224c0,4.198,2.783,10.448,10.447,10.448h1.094c2.016,4.609,6.611,7.835,11.965,7.835c5.354,0,9.95-3.226,11.965-7.835h1.095
			c7.665,0,10.447-6.25,10.447-10.448v-5.224C51.081,10.043,49.912,8.874,48.469,8.874z M14.516,21.933
			c-4.77,0-5.203-4.012-5.224-5.224v-2.612h5.224V21.933z M45.857,16.709c0,0.872-0.253,5.224-5.224,5.224v-7.835h5.224V16.709z"/>
	</g>
</g>
</svg>
